X:319
T:Highlander's Farewell to Ireland, The
R:Strathspey
B:The Athole Collection
M:C
L:1/8
K:A Minor
A,3B, A,/A,/A, ~A,2|G>ED>B, G,/G,/G, G,>G|E>DE>G A>BA>G|
E<G D>B, A,/A,/A, ~A,2:|
a3b a/a/a a2|g>ag>e d/c/B/A/ G>g|e>de>g a>ba>g|g>ed>B A/A/A A2|
a3b a/a/a a2|gg d/c/B/A/ G>g|e>de>g a>ba>g|g>ed>B A/A/A A||
|:^F|E>A, A,/A,/A, E>A, E2|D>B, G,/G,/G, G>AB>D|E>A, A,/A,/A, E<A, E>A|
G>ED>B, A,/A,/A, A,:|
|:a>ba>e a>ba>e|g>ag>e d/c/B/A/ G>g|e>de>g a>ba>g|g>ed>B A/A/A A2:|
